X: 5580
T: Bush On The Hill, The
R: jig
M: 6/8
K: Gmajor
B,A,|:G,2E DB,D|GFG Bdg|edc BcA|1 BGF GB,A,:|2 BGF G2D||
|:GBd gfg|ege dBG|cBc dBG|ABA AGE|
GBd gfg|ege dBG|cBc dBG|AGF G2E:|

